!!!COM:	Martini, Johannes
!!!CDT:	~1440///-~1497//
!!!OTL:	Conserva me Domine
!!!AGN:	Motet
!!!SCT:	Mar2016
!!!SCA:	Mar2016
!!!voices:	3
**kern	**kern	**kern
*staff3	*staff2	*staff1
*Ivox	*Ivox	*Ivox
*I"Tenor	*I"Faulx bourdon	*I"Superius
*I'T	*I'Fb	*I'S
*>[A,B,C,D,E,F,G,H,I,J,K]	*>[A,B,C,D,E,F,G,H,I,J,K]	*>[A,B,C,D,E,F,G,H,I,J,K]
*>A	*>A	*>A
*clefGv2	*clefGv2	*clefG2
*k[b-]	*k[]	*k[]
*M2/1	*M2/1	*M2/1
*met(C)	*met(C)	*met(C)
!!section: Dixi Domino
!!!OMD: Dixi Domino
=1-	=1-	=1-
!!LO:TX:Z=8:t=Choir 1
2G/	2d\	2g/
2G/	2d\	2g/
2B-\	2d\	2g/
2B-\	2d\	2g/
=2	=2	=2
1B-	1d	1g
2B-\	2d\	2g/
2B-\	2d\	2g/
=3	=3	=3
2B-\	2d\	2g/
1B-	1d	1g
2B-\	2d\	2g/
=4	=4	=4
1B-	1d	1g
1B-	2r	2r
.	2d\	2g/
=5	=5	=5
1G	1d	1g
1B-	1d	1g
=6	=6	=6
2B-\	2d\	2g/
2B-\	2d\	2g/
2B-\	2d\	2g/
2B-\	2d\	2g/
=7	=7	=7
1B-	1d	1g
2.A/	[1e	[1a
4B-\	.	.
=8	=8	=8
1c	2e\]	2a/]
.	1d	1g
2B-\	.	.
2A/	[2c\	[2f/
=9	=9	=9
1G	2c\]	2f/]
.	2B\	2e/
1Fl	1cl	1fl
=10||	=10||	=10||
*>B	*>B	*>B
!!section: Sanctis, qui sunt
!!!OMD: Sanctis, qui sunt
!!LO:TX:Z=8:t=Choir 2
1G	0r	1g
1B-	.	1g
=11	=11	=11
1B-	0r	1g
2A/	.	2f/
2B-\	.	2g/
=12	=12	=12
2c\	0r	2a/
1d	.	1b-i
2c\	.	[2a/
=13	=13	=13
1B-	0r	2a/]
.	.	2g/
1A	.	1a
=14	=14	=14
1r	0r	1r
2B-\	.	2g/
2B-\	.	2g/
=15	=15	=15
2B-\	0r	2g/
2B-\	.	2g/
1B-	.	1g
=16	=16	=16
2B-\	0r	2g/
1B-	.	1g
2B-\	.	2g/
=17	=17	=17
2B-\	0r	2g/
2B-\	.	2g/
1B-	.	1g
=18	=18	=18
1c	0r	1a
2c\	.	2a/
[2B-\	.	[2g/
=19	=19	=19
2B-\]	0r	2g/]
2A/	.	1f
1G	.	.
.	.	2e/
=20	=20	=20
0Fl	0r	0fl
=21||	=21||	=21||
*>C	*>C	*>C
!!section: Multiplicate sunt
!!!OMD: Multiplicate sunt
!!LO:TX:Z=8:t=Choir 1
1G	1d	1g
2B-\	2d\	2g/
2B-\	2d\	2g/
=22	=22	=22
2B-\	2d\	2g/
2B-\	2d\	2g/
1G	1d	1g
=23	=23	=23
2B-\	2d\	2g/
2B-\	2d\	2g/
2B-\	2d\	2g/
2B-\	2d\	2g/
=24	=24	=24
1B-	1d	1g
1d	1f	1b-i
=25	=25	=25
2c\	2e\	2a/
2A/	1e	1a
1B-	.	.
.	2d\	2g/
=26	=26	=26
1A	1e	1a
1r	1r	1r
=27	=27	=27
2B-\	2d\	2g/
2B-\	2d\	2g/
1B-	1d	1g
=28	=28	=28
1A	1.e	1.a
2c\	.	.
2B-\	2d\	2g/
=29	=29	=29
2A/	2c\	2f/
1B-	1d	1g
2A/	[2c\	[2f/
=30	=30	=30
1G	2c\]	2f/]
.	2B\	2e/
1Fl	1cl	1fl
=31||	=31||	=31||
*>D	*>D	*>D
!!section: Non congregabo
!!!OMD: Non congregabo
!!LO:TX:Z=8:t=Choir 2
1G	0r	1g
1B-	.	1g
=32	=32	=32
2B-\	0r	2g/
2B-\	.	2g/
1B-	.	1g
=33	=33	=33
2B-\	0r	2g/
2B-\	.	2g/
2B-\	.	2g/
2B-\	.	2g/
=34	=34	=34
1B-	0r	1g
2B-\	.	2g/
2B-\	.	2g/
=35	=35	=35
1B-	0r	1g
1d	.	1b-i
=36	=36	=36
2c\	0r	2a/
2A/	.	1a
1B-	.	.
.	.	2g/
=37	=37	=37
1A	0r	1a
1r	.	1r
=38	=38	=38
2B-\	0r	2g/
2B-\	.	2g/
2B-\	.	2g/
2B-\	.	2g/
=39	=39	=39
1B-	0r	1g
1B-	.	2r
.	.	2g/
=40	=40	=40
2B-\	0r	2g/
2B-\	.	2g/
2B-\	.	2g/
2B-\	.	2g/
=41	=41	=41
1B-	0r	1g
1B-	.	1g
=42	=42	=42
1c	0r	1a
2c\	.	2a/
[2B-\	.	[2g/
=43	=43	=43
2B-\]	0r	2g/]
2A/	.	1f
1G	.	.
.	.	2e/
=44	=44	=44
0Fl	0r	0fl
=45||	=45||	=45||
*>E	*>E	*>E
!!section: Dominus pars hereditatis
!!!OMD: Dominus pars hereditatis
!!LO:TX:Z=8:t=Choir 1
1G	1d	1g
2B-\	2d\	2g/
2B-\	2d\	2g/
=46	=46	=46
1B-	1d	1g
2B-\	2d\	2g/
2B-\	2d\	2g/
=47	=47	=47
2B-\	2d\	2g/
2B-\	2d\	2g/
1G	1d	1g
=48	=48	=48
2B-\	2d\	2g/
2A/	2c\	2f/
1B-	1d	1g
=49	=49	=49
2c\	2e\	2a/
1d	1f	1b-i
2c\	[2e\	[2a/
=50	=50	=50
1B-	2e\]	2a/]
.	2d\	2g/
1A	1e	1a
=51	=51	=51
1r	1r	1r
1B-	1d	1g
=52	=52	=52
1B-	1d	1g
2B-\	2d\	2g/
2B-\	2d\	2g/
=53	=53	=53
2B-\	2d\	2g/
2B-\	2d\	2g/
1G	1d	1g
=54	=54	=54
1B-	1d	1g
2B-\	2d\	2g/
2B-\	2d\	2g/
=55	=55	=55
1A	1e	1a
1c	2e\	2a/
.	[2d\	[2g/
=56	=56	=56
2B-\	2d\]	2g/]
2A/	1c	1f
1G	.	.
.	2B\	2e/
=57	=57	=57
0Fl	0cl	0fl
=58||	=58||	=58||
*>F	*>F	*>F
!!section: Funes ceciderunt
!!!OMD: Funes ceciderunt
!!LO:TX:Z=8:t=Choir 2
1G	0r	1g
1B-	.	1g
=59	=59	=59
1B-	0r	1g
2B-\	.	2g/
2B-\	.	2g/
=60	=60	=60
2B-\	0r	2g/
2B-\	.	2g/
1B-	.	1g
=61	=61	=61
1d	0r	1b-i
2c\	.	2a/
2A/	.	[2a/
=62	=62	=62
1B-	0r	2a/]
.	.	2g/
1A	.	1a
=63	=63	=63
1r	0r	1r
2B-\	.	2g/
2B-\	.	2g/
=64	=64	=64
1B-	0r	1g
1B-	.	1g
=65	=65	=65
2B-\	0r	2g/
2B-\	.	2g/
2B-\	.	2g/
2B-\	.	2g/
=66	=66	=66
1B-	0r	1g
1B-	.	1g
=67	=67	=67
1c	0r	1a
2A/	.	2a/
[2B-\	.	[2g/
=68	=68	=68
2B-\]	0r	2g/]
2A/	.	1f
1G	.	.
.	.	2e/
=69	=69	=69
0Fl	0r	0fl
=70||	=70||	=70||
*>G	*>G	*>G
!!section: Benedicam Dominum
!!!OMD: Benedicam Dominum
!!LO:TX:Z=8:t=Choir 1
1G	1d	1g
1B-	1d	1g
=71	=71	=71
2B-\	2d\	2g/
2B-\	2d\	2g/
2B-\	2d\	2g/
2B-\	2d\	2g/
=72	=72	=72
1B-	1d	1g
1B-	1d	1g
=73	=73	=73
2B-\	2d\	2g/
2B-\	2d\	2g/
2B-\	2d\	2g/
2B-\	2d\	2g/
=74	=74	=74
1B-	1d	1g
1d	1f	1b-i
=75	=75	=75
2c\	2e\	2a/
2A/	1e	1a
1B-	.	.
.	2d\	2g/
=76	=76	=76
1A	1e	1a
1r	1r	1r
=77	=77	=77
2B-\	2d\	2g/
2B-\	2d\	2g/
1B-	1d	1g
=78	=78	=78
1B-	1d	1g
2B-\	2d\	2g/
2B-\	2d\	2g/
=79	=79	=79
2B-\	2d\	2g/
2B-\	2d\	2g/
1G	1d	1g
=80	=80	=80
2B-\	2d\	2g/
2B-\	2d\	2g/
2B-\	2d\	2g/
2B-\	2d\	2g/
=81	=81	=81
1B-	1d	1g
[1c	[1e	[1a
=82	=82	=82
2c\]	2e\]	2a/]
2B-\	2d\	2g/
2A/	2c\	2f/
[2B-\	[2d\	[2g/
=83	=83	=83
2B-\]	2d\]	2g/]
2A/	1c	1f
1G	.	.
.	2B\	2e/
=84	=84	=84
0Fl	0cl	0fl
=85||	=85||	=85||
*>H	*>H	*>H
!!section: Providebam Dominum
!!!OMD: Providebam Dominum
!!LO:TX:Z=8:t=Choir 2
1G	0r	1g
2B-\	.	2g/
2B-\	.	2g/
=86	=86	=86
1B-	0r	1g
2B-\	.	2g/
2B-\	.	2g/
=87	=87	=87
1B-	0r	1g
1B-	.	1g
=88	=88	=88
2B-\	0r	2g/
2B-\	.	2g/
1B-	.	1g
=89	=89	=89
2d\	0r	2b-i\
2c\	.	2a/
1B-	.	1g
=90	=90	=90
1A	0r	1a
1r	.	1r
=91	=91	=91
2B-\	0r	2g/
2B-\	.	2g/
1B-	.	1g
=92	=92	=92
1B-	0r	1g
2B-\	.	2g/
2B-\	.	2g/
=93	=93	=93
2B-\	0r	2g/
2B-\	.	2g/
1B-	.	1g
=94	=94	=94
1c	0r	1a
1B-	.	1g
=95	=95	=95
2A/	0r	2f/
2F/	.	1f
1G	.	.
.	.	2e/
=96	=96	=96
0Fl	0r	0fl
=97||	=97||	=97||
*>I	*>I	*>I
!!LO:TX:Z=8:t=Choir 1
!!section: Propter hoc letatum
!!!OMD: Propter hoc letatum
2B-\	2d\	2g/
2B-\	2d\	2g/
1B-	1d	1g
=98	=98	=98
2B-\	2d\	2g/
2B-\	2d\	2g/
2B-\	2d\	2g/
[2B-\	[2d\	[2g/
=99	=99	=99
2B-\]	2d\]	2g/]
2B-\	2d\	2g/
1B-	1d	1g
=100	=100	=100
1A	1c	1f
1G	2r	2r
.	[2d\	[2g/
=101	=101	=101
1B-	2d\]	2g/]
.	2d\	2g/
2B-\	2d\	2g/
2B-\	2d\	2g/
=102	=102	=102
1B-	1d	1g
2c\	2e\	2a/
[2d\	[2f\	[2b-i\
=103	=103	=103
2d\]	2f\]	2b-\]
2c\	1e	1a
1B-	.	.
.	2d\	2g/
=104	=104	=104
1A	1e	1a
1r	1r	1r
=105	=105	=105
2B-\	2d\	2g/
2B-\	2d\	2g/
1B-	1d	1g
=106	=106	=106
2B-\	2d\	2g/
2B-\	2d\	2g/
2B-\	2d\	2g/
2B-\	2d\	2g/
=107	=107	=107
1B-	1d	1g
1A	[1e	[1a
=108	=108	=108
2c\	2e\]	2a/]
2B-\	2d\	2g/
2A/	2c\	2f/
[2B-\	[2d\	[2g/
=109	=109	=109
2B-\]	2d\]	2g/]
2A/	1c	1f
1G	.	.
.	2B\	2e/
=110	=110	=110
0Fl	0cl	0fl
=111||	=111||	=111||
*>J	*>J	*>J
!!section: Quoniam non derelinques
!!!OMD: Quoniam non derelinques
!!LO:TX:Z=8:t=Choir 2
2B-\	0r	2g/
2B-\	.	2g/
1B-	.	1g
=112	=112	=112
2B-\	0r	2g/
2B-\	.	2g/
2B-\	.	2g/
2B-\	.	2g/
=113	=113	=113
1G	0r	1g
2B-\	.	2g/
2B-\	.	2g/
=114	=114	=114
2B-\	0r	2g/
2B-\	.	2g/
1B-	.	1g
=115	=115	=115
1d	0r	1b-i
2c\	.	2a/
2A/	.	[2a/
=116	=116	=116
1B-	0r	2a/]
.	.	2g/
1A	.	1a
=117	=117	=117
1r	0r	1r
1B-	.	1g
=118	=118	=118
2B-\	0r	2g/
1B-	.	1g
2B-\	.	2g/
=119	=119	=119
2B-\	0r	2g/
2B-\	.	2g/
1B-	.	1g
=120	=120	=120
2B-\	0r	2g/
2B-\	.	2g/
1B-	.	1g
=121	=121	=121
1c	0r	1a
2c\	.	2a/
2B-\	.	2g/
=122	=122	=122
2A/	0r	2f/
1B-	.	1g
2A/	.	[2f/
=123	=123	=123
1G	0r	2f/]
.	.	2e/
1Fl	.	1fl
=124||	=124||	=124||
*>K	*>K	*>K
!!section: Notas michi
!!!OMD: Notas michi
!!LO:TX:Z=8:t=Choir 1
1G	1d	1g
2B-\	2d\	2g/
2B-\	2d\	2g/
=125	=125	=125
1B-	1d	1g
2B-\	2d\	2g/
2B-\	2d\	2g/
=126	=126	=126
1B-	1d	1g
2B-\	2d\	2g/
2B-\	2d\	2g/
=127	=127	=127
1B-	1d	1g
1A	1c	1f
=128	=128	=128
2r	2r	2r
2G/	2d\	2g/
2B-\	2d\	2g/
2B-\	2d\	2g/
=129	=129	=129
1B-	1d	1g
2B-\	2d\	2g/
2B-\	2d\	2g/
=130	=130	=130
2B-\	2d\	2g/
2B-\	2d\	2g/
1B-	1d	1g
=131	=131	=131
1c	1e	1a
1d	1f	1b-i
=132	=132	=132
2c\	2e\	2a/
2A/	1e	1a
1B-	.	.
.	2d\	2g/
=133	=133	=133
1A	1e	1a
1r	1r	1r
=134	=134	=134
2B-\	2d\	2g/
2B-\	2d\	2g/
2B-\	2d\	2g/
2B-\	2d\	2g/
=135	=135	=135
1B-	1d	1g
1G	1d	1g
=136	=136	=136
1B-	1d	1g
2B-\	2d\	2g/
2B-\	2d\	2g/
=137	=137	=137
1B-	1d	1g
1c	1e	1a
=138	=138	=138
2B-\	2d\	2g/
2.d\	1f	1b-i
4c\	.	.
2B-\	4e\	4a/
.	4d\	4g/
=139	=139	=139
2A/	2c\	2f/
2G/	1d	1g
1A	.	.
.	2c\	2f#i/
=140	=140	=140
!!!ONB: rests in this final m. are correct
1Gl	1dl	1gl
1r	1r	1r
==	==	==
*-	*-	*-
!!!RDF**kern: l=long note in original notation
!!!RDF**kern: i=editorial accidental
!!!ENC:	Chris Gage 03-26-2014
!!!END:	2014/06/15/
!!!EED:	Jesse Rodin
!!!EEV:	2014/10/16/
!!!ONB:	Translated from MusicXML and edited on 2014/10/16/ by Craig Sapp
!!muse2ps: C^@{COM}^i2I150v85,85,150Q16
